X:265
T:Major Jas.Campbell’s Quick Step. RH.265
R:march
C:W.F.R.
S:Rev.R.Harrison’s MS,c1815,Cumbria
O:England
A:Temple Sowerby,Cumbria
Z:vmp.Simon Wilson. Review PJH, 2008.
M:2/4
L:1/8
Q:1/4=110
K:D
(A/c/)|df (f/e/)(d/c/)|dA (A/G/)(F/E/)|\
FA (d/e/f/d/)|eA (AB/c/)|!
df (f/e/)(d/c/)|dA (A/G/)(F/E/)|\
FA (d/e/f/d/)|e3:|!
|:(f/e/)|(e>c)AA|(gf/e/) (fe/d/)|\
e>c Ag|gf/e/ ff/g/|!
af d(g/a/)|bg (ed/c/)|df (f/e/)(d/c/)|d3:|

